X:479
T:Lighthouse Keeper's Waltz
M:3/4
L:1/4
C:Cal Scott
K:G
|:z B c |"G"d>Bd |"D"cBA |"G"GBd |"C"e>fg |"G"d>BG |"C"e>dc |"G"c<BG |"D"A2 B/c/|
"G"dBd |"D"c>BA |"G"GBd |"C"e>fg |"G"d<BG |"D7"c<AF |"G"G3 :||
zgf |"C"e>dc |"G"B<dG |"D7"A>Bc |"G"Bgf |"C"e>dc|"G"B<g "C"f/e/ |"G"dBG|"D"A3-|A gf|
"C"e>fg|"G"d>fg |"C"e>dc |"G"BdD |"C"EcB|"D"A>GF |"G"G3||

